svgs/sharp-regular/head-side-mask.svg

<svg xmlns="http://www.w3.org/2000/svg" viewBox="0 0 576 512"><!--! Font Awesome Pro 6.6.0 by @fontawesome - https://fontawesome.com License - https://fontawesome.com/license (Commercial License) Copyright 2024 Fonticons, Inc. --><path d="M144 361.7l0 19.6 0 66.8 0 16 0 48-16 0-32 0 0-32 0-16 0-82.8c-41-41.9-64-98.3-64-157C32 100.6 132.2 0 256 0l32 0C389.8 0 473.1 79.2 479.6 179.4l56.3 63.4 8.1 9.1 0 12.2 0 8 0 16 0 16 0 16L480 512l-128 0-32 0-16 0-48 0 0-48 0-144 0-3.2L81.6 200.6c-1 7.7-1.6 15.6-1.6 23.7c0 46.1 18.1 90.5 50.3 123.4l13.7 14zM95.4 152.1L275.3 272l28.7 0 192 0 0-1.9-52.3-58.8-11-12.3-1.1-16.5C426.8 107.4 364.3 48 288 48l-32 0C184.5 48 122.9 90.8 95.4 152.1zM368 160a32 32 0 1 1 0 64 32 32 0 1 1 0-64zM493.4 320L304 320l0 144 141.4 0 8-24L368 440l-16 0 0-32 16 0 96.1 0 10.7-32L368 376l-16 0 0-32 16 0 117.4 0 8-24z"/></svg>

<svg xmlns="http://www.w3.org/2000/svg" viewBox="0 0 576 512"><!--! Font Awesome Pro 6.4.2 by @fontawesome - https://fontawesome.com License - https://fontawesome.com/license (Commercial License) Copyright 2023 Fonticons, Inc. --><path d="M144 361.7v19.6V448v16 48H128 96V480 464 381.2c-41-41.9-64-98.3-64-157C32 100.6 132.2 0 256 0h32C389.8 0 473.1 79.2 479.6 179.4l56.3 63.4 8.1 9.1V264v8 16 16 16L480 512H352 320 304 256V464 320v-3.2L81.6 200.6c-1 7.7-1.6 15.6-1.6 23.7c0 46.1 18.1 90.5 50.3 123.4l13.7 14zM95.4 152.1L275.3 272H304 496v-1.9l-52.3-58.8-11-12.3-1.1-16.5C426.8 107.4 364.3 48 288 48H256C184.5 48 122.9 90.8 95.4 152.1zM368 160a32 32 0 1 1 0 64 32 32 0 1 1 0-64zM493.4 320H304V464H445.4l8-24H368 352V408h16 96.1l10.7-32H368 352V344h16H485.4l8-24z"/></svg>
